X:1
T:Title
%%score ( 1 2 ) ( 3 4 )
L:1/8
Q:1/4=90
M:9/8
K:Ab
V:1 treble nm="Strings 1, Treble"
V:2 treble 
V:3 bass nm="Strings 1, Bass"
V:4 bass 
V:1
 z3 z3 [CE][A,C][CE] | [Ec]3 [EA]3 [EB][EA][EB] | [Ec]6 [Fd][Ec][DB] | z3 z3 .B3 | %4
w: 1.~Can~ I~ de|feat~ my~ Sav * ior's~|plan,~ Tram ple~ His~|in~|
 [CE]6 [CE][A,C][CE] | [Ec]3 [EA]3 [EA][EB][_Gc] | [Fd]6 [Fd][Fc][FB] | z3 z3 .B3 | %8
w: dust?~ How~ can~ I~|long er~ doubt ing~ re|main~ If~ I~ but~|right~|
 [EA]6 [Ae][Ae][Ae] | [Ge]3 [GB]3 [Bd][Ac][GB] | [Ac]6 [Ac][Ac][Ac] | [Af]3 [Ae]3 [A=d][Ac][Ad] | %12
w: just?~ * * *||||
 [Ge]6 [CE][A,C][CE] | z3 z3 .A3 | [Fd]6 [Fd][Fc][FB] | z3 z3 .B3 | [EA]6 z3 |] %17
w: |||||
V:2
 x9 | x9 | x9 | [Ec]3 [EA]3 F-[FA][DF] | x9 | x9 | x9 | [Ec]3 [EA]3 E-[EA][EG] | x9 | x9 | x9 | %11
w: |||* * * * the~||||* * * * and~||||
 x9 | x9 | [Ec]3 [EA]3 E-[EB][_Gc] | x9 | [Ec]3 [EA]3 E-[EA][EG] | x9 |] %17
w: ||||||
V:3
 z3 z3 [A,,A,][A,,A,][A,,A,] | [A,,A,]3 [C,A,]3 [E,G,][E,F,][E,G,] | A,6 A,A,A, | %3
 [A,,A,]3 [C,A,]3 [D,A,]2 [D,A,] | [A,,A,]6 [A,,A,][A,,A,][A,,A,] | %5
 [A,,A,]3 [C,A,]3 [C,A,][B,,G,][A,,A,] | [D,A,]6 [D,A,][D,A,][D,A,] | [E,A,]3 [E,C]3 DC[E,B,] | %8
 [A,,C]6 [A,C][A,C][A,C] | [E,B,]3 [E,E]3 [E,E][E,E][E,E] | [A,E]6 [A,E][A,E][A,E] | %11
 [A,D]3 [A,C]3 B,B,B, | [E,B,]6 [A,,A,][A,,A,][A,,A,] | [A,,A,]3 [C,A,]3 [C,A,][B,,G,][A,,A,] | %14
 [D,A,]6 [D,A,][D,A,][D,A,] | [E,A,]3 [E,C]3 DC[E,B,] | [A,,C]6 z3 |] %17
V:4
 x9 | x9 | x9 | x9 | x9 | x9 | x9 | z3 z3 .E,3 | x9 | x9 | x9 | x9 | x9 | x9 | x9 | z3 z3 .E,3 | %16
 x9 |] %17

